X:1
T: Lady McKenzie of Coul
C:
R:Strathspey
Q: 128
K:C
M:4/4
L:1/16
|:EF|G3A G3c AF3 F3d|BG3 G3B cdef g4|G3A G3c AF3 F3c|BcdB G3B c6 EF|
G3A G3c AF3 F3d|BG3 G3B cdef g4|G3A G3c AF3 F3c|BcdB G3B c6 f2|
eg3 g4 a3f d3f|e3g c3e dcBA G3f|eg3 g4 a3f d3f|e3g BcdB c6 f2|
eg3 g4 a3f d3f|e3g c3e dcBA G3G|c4 G3E F3A D3f|fedc edcB c6:|
